icons/money-dollar-circle-fill.svg

<svg viewBox="0 0 24 24" fill="currentColor" xmlns="http://www.w3.org/2000/svg"><path d="M12.0049 22.0027C6.48204 22.0027 2.00488 17.5256 2.00488 12.0027C2.00488 6.4799 6.48204 2.00275 12.0049 2.00275C17.5277 2.00275 22.0049 6.4799 22.0049 12.0027C22.0049 17.5256 17.5277 22.0027 12.0049 22.0027ZM8.50488 14.0027V16.0027H11.0049V18.0027H13.0049V16.0027H14.0049C15.3856 16.0027 16.5049 14.8835 16.5049 13.5027C16.5049 12.122 15.3856 11.0027 14.0049 11.0027H10.0049C9.72874 11.0027 9.50488 10.7789 9.50488 10.5027C9.50488 10.2266 9.72874 10.0027 10.0049 10.0027H15.5049V8.00275H13.0049V6.00275H11.0049V8.00275H10.0049C8.62417 8.00275 7.50488 9.12203 7.50488 10.5027C7.50488 11.8835 8.62417 13.0027 10.0049 13.0027H14.0049C14.281 13.0027 14.5049 13.2266 14.5049 13.5027C14.5049 13.7789 14.281 14.0027 14.0049 14.0027H8.50488Z"/></svg>

<svg xmlns="http://www.w3.org/2000/svg" viewBox="0 0 24 24">
    <g>
        <path fill="none" d="M0 0h24v24H0z"/>
        <path d="M12 22C6.477 22 2 17.523 2 12S6.477 2 12 2s10 4.477 10 10-4.477 10-10 10zm-3.5-8v2H11v2h2v-2h1a2.5 2.5 0 1 0 0-5h-4a.5.5 0 1 1 0-1h5.5V8H13V6h-2v2h-1a2.5 2.5 0 0 0 0 5h4a.5.5 0 1 1 0 1H8.5z"/>
    </g>
</svg>
